X:1
T:Ode to Joy
T:Ode to Joy
T:Bass Line
T:arr. Jodi Vuong
C:arr. Jodi Vuong
%%score { 1 | 2 }
L:1/8
M:4/4
K:D
V:1 treble nm="Piano" snm="Pno."
V:2 bass 
V:1
 F2 F2 G2 A2 | A2 G2 F2 E2 | D2 D2 E2 F2 | F3 E E4 | F2 F2 G2 A2 | A2 G2 F2 E2 | D2 D2 E2 F2 | %7
 E3 D D4 | E2 E2 F2 D2 | E2 FG F2 D2 | E2 FG F2 E2 | D2 E2 A,4 | F2 F2 G2 A2 | A2 G2 F2 E2 | %14
 D2 D2 E2 F2 | E3 D D4 |] %16
V:2
 D,2 F,2 B,,2 D,2 | D,2 E,2 A,,2 A,,2 | B,,2 A,,2 B,,2 F,,2 | G,,4 A,,4 | D,2 C,2 D,2 E,2 | %5
 F,2 B,,2 A,,2 B,,2 | A,,2 B,,2 G,,2 A,,2 | D,2 C,2 D,4 | A,,2 G,,2 F,,2 A,,2 | A,,2 D,2 C,2 D,2 | %10
 A,,G,, F,,2 ^A,,2 B,,2 | B,,2 C,D, C,4 | D,2 C,2 D,2 E,2 | F,2 B,,2 A,,2 B,,2 | %14
 A,,2 B,,2 G,,2 A,,2 | D,2 C,2 D,4 |] %16

